X:1
T:Pennknivsm\"ordaren
R:polska J
C:Trad. efter Olov Johansson
D:V\"asen: Essence
Z:Bart Brashers, bart.brashers@nyckelharpa.org, from John Chambers version.
Z:Henrik Norbeck <henrik.norbeck@mailbox.swipnet.SE>
M:3/4
L:1/16
Q:1/4=115
K:Am
| a-bag =f-gfd e2e2 | c2ed c-BA^G A2E2 | A-^GAB c2d2 e2^f2 | d-^cd^f a-ba^g e4 |
| a-bag =f-gfd e2e2 | c2ed c-BA^G A2E2 | A-^GAB c2ce d-cB-A | ^G-ABG A8 :|
|: E2c2 E2c2 E2c2 | c3B =G2B2 B2B2 | c-BA^G A-Bcd e-=fed | c-dcB A-BA^G E4 |
|  E2c2 E2c2 E2c2 | c3B =G2B2 B2B2 | c-BA^G A-Bcd e-=fe-d | c-BA^G A8 :|
